public/cloud-icons/azure/management/azure-cli.svg

<?xml version="1.0" encoding="UTF-8" standalone="no"?>
<!-- Generated by Microsoft Visio, SVG Export Azure CLI.svg Page-1 -->

<svg
   xmlns:dc="http://purl.org/dc/elements/1.1/"
   xmlns:cc="http://creativecommons.org/ns#"
   xmlns:rdf="http://www.w3.org/1999/02/22-rdf-syntax-ns#"
   xmlns:svg="http://www.w3.org/2000/svg"
   xmlns="http://www.w3.org/2000/svg"
   xmlns:sodipodi="http://sodipodi.sourceforge.net/DTD/sodipodi-0.dtd"
   xmlns:inkscape="http://www.inkscape.org/namespaces/inkscape"
   width="0.7873913in"
   height="0.62985861in"
   viewBox="0 0 56.691979 45.350003"
   xml:space="preserve"
   class="st6"
   version="1.1"
   id="svg54"
   sodipodi:docname="Azure CLI.svg"
   style="font-size:12px;overflow:visible;color-interpolation-filters:sRGB;fill:none;fill-rule:evenodd;stroke-linecap:square;stroke-miterlimit:3"
   inkscape:version="0.92.5 (2060ec1f9f, 2020-04-08)"><metadata
   id="metadata60"><rdf:RDF><cc:Work
       rdf:about=""><dc:format>image/svg+xml</dc:format><dc:type
         rdf:resource="http://purl.org/dc/dcmitype/StillImage" /></cc:Work></rdf:RDF></metadata><defs
   id="defs58" /><sodipodi:namedview
   pagecolor="#ffffff"
   bordercolor="#666666"
   borderopacity="1"
   objecttolerance="10"
   gridtolerance="10"
   guidetolerance="10"
   inkscape:pageopacity="0"
   inkscape:pageshadow="2"
   inkscape:window-width="640"
   inkscape:window-height="480"
   id="namedview56"
   showgrid="false"
   inkscape:zoom="1.9902793"
   inkscape:cx="37.795116"
   inkscape:cy="13.930613"
   inkscape:window-x="0"
   inkscape:window-y="0"
   inkscape:window-maximized="0"
   inkscape:current-layer="svg54" />
	<style
   type="text/css"
   id="style2">
	<![CDATA[
		.st1 {fill:#80bceb;stroke:none;stroke-linecap:butt;stroke-width:9.5625}
		.st2 {fill:#414042;stroke:none;stroke-linecap:butt;stroke-width:9.5625}
		.st3 {fill:#aad2f2;stroke:none;stroke-linecap:butt;stroke-width:9.5625}
		.st4 {fill:#231f20;stroke:none;stroke-linecap:butt;stroke-width:9.5625}
		.st5 {fill:#ffffff;stroke:none;stroke-linecap:butt;stroke-width:9.5625}
		.st6 {fill:none;fill-rule:evenodd;font-size:12px;overflow:visible;stroke-linecap:square;stroke-miterlimit:3}
	]]>
	</style>

	<g
   id="g52"
   transform="translate(-9.5627822,-9.5643)">
		<title
   id="title4">Page-1</title>
		<g
   id="group13903-1"
   transform="translate(9.5625,-34.0157)">
			<title
   id="title6">Azure CLI.13903</title>
			<g
   id="group13904-2">
				<title
   id="title8">Sheet.13904</title>
				<g
   id="shape13905-3">
					<title
   id="title10">Sheet.13905</title>
					<path
   d="M 56.69,47.21 V 88.93 H 0 V 47.21 a 3.54331,3.62835 0 0 1 3.54,-3.63 h 49.61 a 3.54331,3.62835 0 0 1 3.54,3.63 z"
   class="st1"
   id="path12"
   inkscape:connector-curvature="0"
   style="fill:#80bceb;stroke:none;stroke-width:9.5625;stroke-linecap:butt" />
				</g>
				<g
   id="shape13906-5"
   transform="translate(3.54331,-39.0047)">
					<title
   id="title15">Sheet.13906</title>
					<ellipse
   cx="1.77165"
   cy="87.118401"
   rx="1.77165"
   ry="1.81417"
   class="st2"
   id="ellipse17"
   style="fill:#414042;stroke:none;stroke-width:9.5625;stroke-linecap:butt" />
				</g>
				<g
   id="shape13907-7"
   transform="translate(8.85827,-39.0047)">
					<title
   id="title20">Sheet.13907</title>
					<ellipse
   cx="1.77165"
   cy="87.118401"
   rx="1.77165"
   ry="1.81417"
   class="st2"
   id="ellipse22"
   style="fill:#414042;stroke:none;stroke-width:9.5625;stroke-linecap:butt" />
				</g>
				<g
   id="shape13908-9"
   transform="translate(14.1732,-39.0047)">
					<title
   id="title25">Sheet.13908</title>
					<ellipse
   cx="1.77165"
   cy="87.118401"
   rx="1.77165"
   ry="1.81417"
   class="st2"
   id="ellipse27"
   style="fill:#414042;stroke:none;stroke-width:9.5625;stroke-linecap:butt" />
				</g>
				<g
   id="shape13909-11"
   transform="translate(18.6024,-6.34961)">
					<title
   id="title30">Sheet.13909</title>
					<path
   d="M 38.09,53.56 V 88.93 L 34.55,85.3 32.78,62.63 11.52,61.72 0,49.93 h 34.55 a 3.54331,3.62835 0 0 1 3.54,3.63 z"
   class="st3"
   id="path32"
   inkscape:connector-curvature="0"
   style="fill:#aad2f2;stroke:none;stroke-width:9.5625;stroke-linecap:butt" />
				</g>
				<g
   id="shape13910-13"
   transform="translate(2.65748,-2.72126)">
					<title
   id="title35">Sheet.13910</title>
					<rect
   x="0"
   y="54.463299"
   width="51.377998"
   height="34.469299"
   class="st4"
   id="rect37"
   style="fill:#231f20;stroke:none;stroke-width:9.5625;stroke-linecap:butt" />
				</g>
				<g
   id="shape13911-15"
   transform="translate(6.12106,-23.6931)">
					<title
   id="title40">Sheet.13911</title>
					<path
   d="m 2.81,87.18 v 1.25 h -0.7 v -1.2 a 3.80906,3.90047 0 0 1 -2.03,-0.5 v -1.32 a 2.80807,2.87546 -180 0 0 0.93,0.51 3.38386,3.46507 -180 0 0 1.1,0.21 V 83.6 A 4.72146,4.83477 0 0 1 0.39,82.44 1.97539,2.0228 0 0 1 0,81.19 2.00197,2.05002 0 0 1 0.59,79.71 2.51575,2.57613 0 0 1 2.11,78.95 V 77.92 H 2.8 v 1.02 a 3.54331,3.62835 0 0 1 1.63,0.32 V 80.5 A 2.86122,2.92989 -180 0 0 2.81,79.97 v 2.72 a 5.02264,5.14318 0 0 1 1.7,1.1 1.91339,1.95931 0 0 1 -0.12,2.67 2.77264,2.83918 0 0 1 -1.58,0.72 z M 2.12,82.32 v -2.3 A 1.18701,1.2155 -180 0 0 1.44,80.4 0.965551,0.988724 -180 0 0 1.191969,81.089386 1.08071,1.10665 -180 0 0 1.4,81.78 2.17028,2.22236 -180 0 0 2.11,82.32 Z m 0.69,1.6 v 2.21 c 0.64,-0.14 0.95,-0.48 0.95,-1.02 0,-0.53 -0.31,-0.93 -0.95,-1.19 z m 7.55,5.01 H 5.58 v -0.68 h 4.78 z"
   class="st5"
   id="path42"
   inkscape:connector-curvature="0"
   style="fill:#ffffff;stroke:none;stroke-width:9.5625;stroke-linecap:butt" />
				</g>
				<g
   id="shape13912-17"
   transform="translate(26.5748,-9.07087)">
					<title
   id="title45">Sheet.13912</title>
					<path
   d="M 27.46,60.81 V 88.93 L 0,60.81 Z"
   class="st2"
   id="path47"
   inkscape:connector-curvature="0"
   style="fill:#414042;stroke:none;stroke-width:9.5625;stroke-linecap:butt" />
				</g>
			</g>
		</g>
	</g>
</svg>

<svg xmlns="http://www.w3.org/2000/svg" xml:space="preserve" width="75.59" height="60.466" style="font-size:12px;overflow:visible;color-interpolation-filters:sRGB;fill-rule:evenodd;stroke-linecap:square;stroke-miterlimit:3" viewBox="0 0 56.692 45.35"><g transform="translate(-9.563 -9.564)"><title>Page-1</title><g transform="translate(9.563 -34.016)"><title>Azure CLI.13903</title><title>Sheet.13904</title><title>Sheet.13905</title><path d="M56.69 47.21v41.72H0V47.21a3.543 3.628 0 0 1 3.54-3.63h49.61a3.543 3.628 0 0 1 3.54 3.63" style="fill:#80bceb;stroke:none;stroke-width:9.5625;stroke-linecap:butt"/><g transform="translate(3.543 -39.005)"><title>Sheet.13906</title><ellipse cx="1.772" cy="87.118" rx="1.772" ry="1.814" style="fill:#414042;stroke:none;stroke-width:9.5625;stroke-linecap:butt"/></g><g transform="translate(8.858 -39.005)"><title>Sheet.13907</title><ellipse cx="1.772" cy="87.118" rx="1.772" ry="1.814" style="fill:#414042;stroke:none;stroke-width:9.5625;stroke-linecap:butt"/></g><g transform="translate(14.173 -39.005)"><title>Sheet.13908</title><ellipse cx="1.772" cy="87.118" rx="1.772" ry="1.814" style="fill:#414042;stroke:none;stroke-width:9.5625;stroke-linecap:butt"/></g><g transform="translate(18.602 -6.35)"><title>Sheet.13909</title><path d="M38.09 53.56v35.37l-3.54-3.63-1.77-22.67-21.26-.91L0 49.93h34.55a3.543 3.628 0 0 1 3.54 3.63" style="fill:#aad2f2;stroke:none;stroke-width:9.5625;stroke-linecap:butt"/></g><g transform="translate(2.657 -2.721)"><title>Sheet.13910</title><path d="M0 54.463h51.378v34.469H0z" style="fill:#231f20;stroke:none;stroke-width:9.5625;stroke-linecap:butt"/></g><g transform="translate(6.121 -23.693)"><title>Sheet.13911</title><path d="M2.81 87.18v1.25h-.7v-1.2a3.81 3.9 0 0 1-2.03-.5v-1.32a2.808 2.875-180 0 0 .93.51 3.384 3.465-180 0 0 1.1.21V83.6a4.721 4.835 0 0 1-1.72-1.16A1.975 2.023 0 0 1 0 81.19a2.002 2.05 0 0 1 .59-1.48 2.516 2.576 0 0 1 1.52-.76v-1.03h.69v1.02a3.543 3.628 0 0 1 1.63.32v1.24a2.861 2.93-180 0 0-1.62-.53v2.72a5.023 5.143 0 0 1 1.7 1.1 1.913 1.96 0 0 1-.12 2.67 2.773 2.84 0 0 1-1.58.72m-.69-4.86v-2.3a1.187 1.216-180 0 0-.68.38.966.989-180 0 0-.248.69 1.08 1.107-180 0 0 .208.69 2.17 2.222-180 0 0 .71.54Zm.69 1.6v2.21c.64-.14.95-.48.95-1.02 0-.53-.31-.93-.95-1.19m7.55 5.01H5.58v-.68h4.78z" style="fill:#fff;stroke:none;stroke-width:9.5625;stroke-linecap:butt"/></g><g transform="translate(26.575 -9.07)"><title>Sheet.13912</title><path d="M27.46 60.81v28.12L0 60.81Z" style="fill:#414042;stroke:none;stroke-width:9.5625;stroke-linecap:butt"/></g></g></g></svg>
